flaticon/emoticons/dead-1.svg

<svg xmlns="http://www.w3.org/2000/svg" width="32" height="32" viewBox="0 0 24 24">
    <path d="M9.234375 11.417969C9.042969 11.226562 8.734375 11.226562 8.542969 11.417969L7.628906 12.332031 6.714844 11.417969C6.523438 11.226562 6.214844 11.226562 6.023438 11.417969 5.828125 11.609375 5.828125 11.917969 6.023438 12.109375L6.933594 13.023438 6.023438 13.9375C5.828125 14.128906 5.828125 14.4375 6.023438 14.628906 6.117188 14.726562 6.242188 14.773438 6.367188 14.773438 6.492188 14.773438 6.617188 14.726562 6.714844 14.628906L7.628906 13.714844 8.542969 14.628906C8.636719 14.726562 8.761719 14.773438 8.886719 14.773438 9.011719 14.773438 9.136719 14.726562 9.234375 14.628906 9.425781 14.4375 9.425781 14.128906 9.234375 13.9375L8.320312 13.023438 9.234375 12.109375C9.425781 11.917969 9.425781 11.609375 9.234375 11.417969zM18.539062 11.417969C18.347656 11.226562 18.039062 11.226562 17.847656 11.417969L16.933594 12.332031 16.019531 11.417969C15.828125 11.226562 15.519531 11.226562 15.328125 11.417969 15.136719 11.609375 15.136719 11.917969 15.328125 12.109375L16.242188 13.023438 15.328125 13.9375C15.136719 14.128906 15.136719 14.4375 15.328125 14.628906 15.421875 14.726562 15.546875 14.773438 15.675781 14.773438 15.800781 14.773438 15.925781 14.726562 16.019531 14.628906L16.933594 13.714844 17.847656 14.628906C17.941406 14.726562 18.066406 14.773438 18.195312 14.773438 18.320312 14.773438 18.445312 14.726562 18.539062 14.628906 18.730469 14.4375 18.730469 14.128906 18.539062 13.9375L17.625 13.023438 18.539062 12.109375C18.730469 11.917969 18.730469 11.609375 18.539062 11.417969zM18.539062 11.417969"/>
    <path d="M 22.476562 9.050781 C 22.449219 8.917969 22.410156 8.789062 22.378906 8.65625 C 22.347656 8.523438 22.316406 8.390625 22.28125 8.257812 C 22.226562 8.058594 22.160156 7.863281 22.09375 7.667969 C 22.058594 7.570312 22.03125 7.476562 21.996094 7.382812 C 21.910156 7.152344 21.8125 6.929688 21.714844 6.710938 C 21.6875 6.652344 21.664062 6.59375 21.636719 6.535156 C 21.527344 6.304688 21.40625 6.078125 21.28125 5.859375 C 21.253906 5.8125 21.230469 5.761719 21.203125 5.714844 C 21.089844 5.527344 20.972656 5.347656 20.851562 5.167969 C 20.792969 5.085938 20.742188 4.996094 20.679688 4.914062 C 20.617188 4.824219 20.546875 4.742188 20.480469 4.65625 C 18.5 2.054688 15.382812 0.410156 11.921875 0.410156 C 7.855469 0.410156 4.269531 2.753906 2.488281 6.277344 C 2.460938 6.335938 2.425781 6.390625 2.398438 6.449219 C 2.316406 6.621094 2.246094 6.792969 2.171875 6.964844 C 2.121094 7.089844 2.066406 7.210938 2.019531 7.339844 C 1.964844 7.484375 1.917969 7.628906 1.867188 7.777344 C 1.816406 7.933594 1.765625 8.085938 1.722656 8.246094 C 1.679688 8.390625 1.648438 8.539062 1.613281 8.683594 C 1.585938 8.808594 1.546875 8.925781 1.523438 9.050781 C 0.640625 9.527344 0 10.570312 0 11.589844 C 0 12.644531 0.621094 13.59375 1.570312 14.027344 C 2.792969 18.804688 7.046875 22.121094 12 22.121094 C 12.148438 22.121094 12.292969 22.109375 12.441406 22.101562 C 12.816406 22.976562 13.683594 23.589844 14.695312 23.589844 L 15.183594 23.589844 C 16.535156 23.589844 17.632812 22.492188 17.632812 21.140625 L 17.632812 20.511719 C 20.003906 19.046875 21.738281 16.714844 22.429688 14.027344 C 23.378906 13.59375 24 12.644531 24 11.589844 C 24 10.570312 23.359375 9.527344 22.476562 9.050781 Z M 2.589844 8.804688 C 2.621094 8.675781 2.65625 8.542969 2.695312 8.414062 C 2.738281 8.265625 2.785156 8.117188 2.835938 7.96875 C 2.875 7.859375 2.914062 7.746094 2.957031 7.636719 C 3.023438 7.464844 3.09375 7.296875 3.167969 7.128906 C 3.199219 7.058594 3.230469 6.992188 3.261719 6.921875 C 4.832031 3.664062 8.132812 1.550781 12 1.550781 C 15.265625 1.550781 18.125 3.058594 19.882812 5.488281 C 19.941406 5.570312 19.996094 5.65625 20.054688 5.738281 C 20.140625 5.867188 20.222656 5.992188 20.300781 6.125 C 20.378906 6.253906 20.453125 6.386719 20.523438 6.519531 C 20.582031 6.621094 20.636719 6.722656 20.6875 6.828125 C 20.761719 6.976562 20.828125 7.128906 20.894531 7.28125 C 20.941406 7.386719 20.984375 7.492188 21.027344 7.597656 C 21.085938 7.746094 21.136719 7.898438 21.191406 8.050781 C 21.230469 8.171875 21.269531 8.296875 21.304688 8.417969 C 21.347656 8.5625 21.386719 8.707031 21.421875 8.851562 C 21.4375 8.925781 21.453125 9.003906 21.46875 9.078125 C 19.472656 9.726562 17.976562 8.289062 17.058594 6.921875 C 16.894531 6.671875 16.628906 6.503906 16.335938 6.460938 C 16.03125 6.414062 15.726562 6.496094 15.484375 6.691406 C 10.925781 10.332031 4.332031 9.363281 2.542969 9.011719 C 2.558594 8.941406 2.574219 8.875 2.589844 8.804688 Z M 16.652344 21.140625 C 16.652344 21.953125 15.992188 22.609375 15.183594 22.609375 L 14.695312 22.609375 C 14.003906 22.609375 13.425781 22.128906 13.269531 21.488281 C 13.269531 21.484375 13.269531 21.484375 13.269531 21.480469 C 13.257812 21.4375 13.253906 21.398438 13.246094 21.355469 C 13.234375 21.285156 13.222656 21.214844 13.222656 21.140625 L 13.222656 17.8125 L 13.828125 17.8125 C 14.007812 17.8125 14.195312 17.8125 14.386719 17.8125 C 14.4375 18.167969 14.464844 18.894531 14.464844 19.988281 L 14.464844 20.066406 C 14.464844 20.339844 14.683594 20.558594 14.953125 20.558594 C 15.226562 20.558594 15.445312 20.339844 15.445312 20.066406 L 15.445312 19.988281 C 15.445312 19.546875 15.445312 18.878906 15.410156 18.304688 C 15.402344 18.144531 15.390625 17.976562 15.375 17.8125 C 15.847656 17.8125 16.296875 17.8125 16.652344 17.8125 Z M 21.855469 13.203125 C 21.695312 13.257812 21.574219 13.390625 21.535156 13.558594 C 20.992188 15.894531 19.589844 17.964844 17.632812 19.351562 L 17.632812 17.808594 C 17.902344 17.808594 18.121094 17.589844 18.121094 17.320312 C 18.121094 17.046875 17.902344 16.828125 17.632812 16.828125 L 17.144531 16.828125 C 17.140625 16.828125 17.140625 16.828125 17.136719 16.828125 L 6.855469 16.828125 C 6.585938 16.828125 6.367188 17.046875 6.367188 17.320312 C 6.367188 17.589844 6.585938 17.808594 6.855469 17.808594 L 12.246094 17.808594 L 12.246094 21.136719 C 12.164062 21.140625 12.082031 21.140625 12 21.140625 C 7.417969 21.140625 3.496094 18.023438 2.464844 13.558594 C 2.425781 13.390625 2.304688 13.257812 2.144531 13.203125 C 1.449219 12.96875 0.980469 12.316406 0.980469 11.589844 C 0.980469 10.925781 1.4375 10.203125 2.019531 9.902344 C 2.582031 10.03125 4.359375 10.394531 6.625 10.394531 C 9.492188 10.394531 13.140625 9.816406 16.097656 7.453125 C 16.132812 7.425781 16.167969 7.425781 16.1875 7.429688 C 16.222656 7.433594 16.242188 7.457031 16.246094 7.464844 C 17.863281 9.875 19.90625 10.734375 22.015625 9.921875 C 22.582031 10.230469 23.019531 10.9375 23.019531 11.589844 C 23.019531 12.316406 22.550781 12.96875 21.855469 13.203125 Z M 21.855469 13.203125"/>
</svg>

<svg xmlns="http://www.w3.org/2000/svg" width="32" height="32" viewBox="0 0 24 24">
    <path d="M9.234 11.418a.488.488 0 0 0-.691 0l-.914.914-.914-.914a.488.488 0 0 0-.692 0 .481.481 0 0 0 0 .691l.91.914-.91.915a.481.481 0 0 0 0 .69.488.488 0 0 0 .691 0l.915-.913.914.914a.488.488 0 0 0 .691 0 .488.488 0 0 0 0-.691l-.914-.915.914-.914a.488.488 0 0 0 0-.691zm0 0M18.54 11.418a.488.488 0 0 0-.692 0l-.914.914-.914-.914a.488.488 0 1 0-.692.691l.914.914-.914.915a.488.488 0 0 0 .348.835c.125 0 .25-.046.344-.144l.914-.914.914.914a.475.475 0 0 0 .347.144.488.488 0 0 0 .344-.836l-.914-.914.914-.914a.488.488 0 0 0 0-.691zm0 0"/>
    <path d="M22.477 9.05c-.028-.132-.067-.26-.098-.394-.031-.133-.063-.265-.098-.398-.054-.2-.12-.395-.187-.59-.035-.098-.063-.191-.098-.285-.086-.23-.183-.453-.281-.672-.027-.059-.05-.117-.078-.176-.11-.23-.23-.457-.356-.676-.027-.046-.05-.097-.078-.144a13.05 13.05 0 0 0-.351-.547c-.059-.082-.11-.172-.172-.254-.063-.09-.133-.172-.2-.258A10.74 10.74 0 0 0 11.922.41C7.855.41 4.27 2.754 2.488 6.277c-.027.059-.062.114-.09.172-.082.172-.152.344-.226.516-.05.125-.106.246-.152.375-.055.144-.102.289-.153.437-.05.157-.101.309-.144.47-.043.144-.075.292-.11.437-.027.125-.066.242-.09.367C.641 9.527 0 10.57 0 11.59c0 1.055.621 2.004 1.57 2.437A10.721 10.721 0 0 0 12 22.121c.148 0 .293-.012.441-.02a2.452 2.452 0 0 0 2.254 1.489h.489a2.45 2.45 0 0 0 2.449-2.45v-.628a10.828 10.828 0 0 0 4.797-6.485A2.683 2.683 0 0 0 24 11.59c0-1.02-.64-2.063-1.523-2.54zM2.59 8.806a9.759 9.759 0 0 1 .246-.836c.039-.11.078-.223.121-.332.066-.172.137-.34.211-.508l.094-.207C4.832 3.664 8.132 1.55 12 1.55c3.266 0 6.125 1.508 7.883 3.937.058.082.113.168.172.25a8.064 8.064 0 0 1 .468.782c.059.101.114.203.165.308.074.149.14.3.207.453.046.106.09.211.132.317.059.148.11.3.164.453a13.188 13.188 0 0 1 .23.8c.017.075.032.153.048.227-1.996.649-3.492-.789-4.41-2.156a1.05 1.05 0 0 0-.723-.461 1.084 1.084 0 0 0-.852.23c-4.558 3.641-11.152 2.672-12.941 2.32l.047-.206zM16.652 21.14a1.47 1.47 0 0 1-1.468 1.468h-.489a1.47 1.47 0 0 1-1.425-1.12v-.009c-.012-.043-.016-.082-.024-.125-.012-.07-.023-.14-.023-.214v-3.328H14.387c.05.355.078 1.082.078 2.175v.078a.49.49 0 1 0 .98 0v-.078c0-.441 0-1.11-.035-1.683-.008-.16-.02-.328-.035-.492h1.277zm5.203-7.938a.491.491 0 0 0-.32.356 9.868 9.868 0 0 1-3.902 5.793v-1.543c.27 0 .488-.22.488-.489a.49.49 0 0 0-.488-.492H6.855a.49.49 0 0 0 0 .98h5.391v3.329c-.082.004-.164.004-.246.004a9.741 9.741 0 0 1-9.535-7.582.491.491 0 0 0-.32-.356A1.708 1.708 0 0 1 .98 11.59c0-.664.458-1.387 1.04-1.688.562.13 2.34.493 4.605.493 2.867 0 6.516-.579 9.473-2.942a.11.11 0 0 1 .09-.023.078.078 0 0 1 .058.035c1.617 2.41 3.66 3.27 5.77 2.457.566.308 1.004 1.015 1.004 1.668 0 .726-.47 1.379-1.165 1.613zm0 0"/>
</svg>
